X: 1
T: Lady Montgomerie's Rant (pipe version)
C: Lord Eglintoune 1796
R: reel
Z: 2006 John Chambers <jc:trillian.mit.edu>
S: handwritten MS
N: bagpipe version
M: C|
L: 1/8
K: D
|: d2dA A2AB | d2dB cdef | d2dA A2Ad | Beed cdef :|
[| d2ad fdaA | d2ad fgaf | d2ad fdaf | gfed cdef ||
|| d2ad fdaA | d2ad fgaf | afge fdef | gfed cdef |]
